X:1
T:Title
%%score { ( 1 3 6 ) | ( 2 4 5 ) }
L:1/8
Q:1/4=110
M:4/4
K:Ab
V:1 treble nm="Grand Piano"
V:3 treble 
V:6 treble 
V:2 bass 
V:4 bass 
V:5 bass 
V:1
 [Ec]2 [Ec]>[Fd] [Ec]3 A | c3 A [Ec]4 | B2 B>c d2 d2 | c6[K:bass] z2 | [Ec]2 [Ec]>[Fd] [Ec]3 [CA] | %5
w: H.~W.~Porter * * * *|||||
 [Ec]2 [_Ge]2 [Fd]2 [Ec]2 | z4 A2 z2 | [CA]6 z2 | [GB]2 [GB]2 [Gc]4 | z4 [Ge]4 | %10
w: |||||
 z B,B,[B,EG] [FA][B,=EG][B,FA][Ac] | z [gb][fa][eg] [=df]edc | [GB]2 [_G=A]2 [_Ac]2 [Bd]2 | %13
w: |||
 [Bd]4 z4 | [Ge]3 [EG] [=DG]2 F2 | z2 .=D2 FGAB | [Ec]2 [Ec]>[Fd] [Ec]3 A | c3 A [Ec]4 | %18
w: |||||
 B2 B>c d2 d2 | c6[K:bass] z2 | [Ec]2 [Ec]>[Fd] [Ec]3 [CA] | [Ec]2 [_Ge]2 [Fd]2 [Ec]2 | z4 A2 z2 | %23
w: |||||
[M:8/4] [CA]8 z8 |] %24
w: |
V:2
 [A,,A,]2 [A,,A,]>[A,,A,] [A,,A,]3 [E,A,C] | [A,E]3 [E,A,C] [A,,A,]4 | %2
 [E,G,E]2 [E,G,E]>[E,A,E] [E,B,E]2 [E,B,E]2 | [A,E]6 z2 | %4
 [A,,A,]2 [A,,A,]>[A,,A,] [A,,A,]3 [A,,A,] | [A,,A,]2 [C,A,]2 [D,A,]2 [E,A,]2 | z4 z2 G2 | %7
 A,,6 z2 | E,G, .G,>G E,G,G,G, | E,G,[G,B,]G, E,G,G,G, | B,,F,F,F, B,,F,F,[F,B,] | %11
 E,[G,B,][G,B,][G,B,] [G,B,][K:treble]cBA | E,G, .G,>G E,G,E,G, | %13
 A,,E,E,[E,A,C] [E,A,C]2 [=A,,=A,]2 | [B,,B,]4 z2 =D2 | [E,G,]6 z2 | %16
 [A,,A,]2 [A,,A,]>[A,,A,] [A,,A,]3 [E,A,C] | [A,E]3 [E,A,C] [A,,A,]4 | %18
 [E,G,E]2 [E,G,E]>[E,A,E] [E,B,E]2 [E,B,E]2 | [A,E]6 z2 | %20
 [A,,A,]2 [A,,A,]>[A,,A,] [A,,A,]3 [A,,A,] | [A,,A,]2 [C,A,]2 [D,A,]2 [E,A,]2 | z4 z2 G2 | %23
[M:8/4] A,,8 z8 |] %24
V:3
 x8 | x8 | x8 | z4 z[K:bass] E,C,E, | x8 | x8 | [DFB]2 [FBd]2 [Ec]3 [DB] | x8 | %8
 z B, .B,>B z B,B,[B,GB] | [_G=A][B,=GB][_Ac][B,GB] z B,B,[B,EG] | [=DF]4 z4 | [GB]6 z2 | %12
 z B, .B,>B z B, z B, | z [A,C][A,C][Ac] [Ae]2 [_Ge]2 | x8 | E3 E- E2 z2 | x8 | x8 | x8 | %19
 z4 z[K:bass] E,C,E, | x8 | x8 | [DFB]2 [FBd]2 [Ec]3 [DB] |[M:8/4] x16 |] %24
V:4
 x8 | x8 | x8 | x8 | x8 | x8 | z4 E,4 | x8 | z2 z G, z4 | x8 | x8 | x5[K:treble] x3 | z2 z G, z4 | %13
 x8 | z4 [B,,A,]4 | x8 | x8 | x8 | x8 | x8 | x8 | x8 | z4 E,4 |[M:8/4] x16 |] %24
V:5
 x8 | x8 | x8 | x8 | x8 | x8 | D,2 B,,2 z2 z E, | x8 | x8 | x8 | x8 | x5[K:treble] x3 | x8 | x8 | %14
 x8 | x8 | x8 | x8 | x8 | x8 | x8 | x8 | D,2 B,,2 z2 z E, |[M:8/4] x16 |] %24
V:6
 x8 | x8 | x8 | x5[K:bass] x3 | x8 | x8 | x8 | x8 | z2 z B, z4 | x8 | x8 | x8 | z2 z B, z4 | x8 | %14
 x8 | x8 | x8 | x8 | x8 | x5[K:bass] x3 | x8 | x8 | x8 |[M:8/4] x16 |] %24

